app/img/amadeo_web/ic_keywords.svg

<svg width="49" height="46" viewBox="0 0 49 46" fill="none" xmlns="http://www.w3.org/2000/svg">
    <rect width="49" height="46" rx="10" fill="url(#paint0_linear)"/>
    <rect x="0.5" y="0.5" width="48" height="45" rx="9.5" stroke="#FAFAFA" stroke-opacity="0.1"/>
    <path d="M35.78 15.8923L29.6567 9.28718C29.5941 9.20079 29.5118 9.12986 29.4163 9.08001C29.3208 9.03016 29.2148 9.00277 29.1067 9H17.1533C16.3262 9.0091 15.535 9.33238 14.9467 9.90165C14.3584 10.4709 14.019 11.2417 14 12.0513V33.9487C14.019 34.7583 14.3584 35.5291 14.9467 36.0983C15.535 36.6676 16.3262 36.9909 17.1533 37H32.8467C33.6738 36.9909 34.465 36.6676 35.0533 36.0983C35.6416 35.5291 35.981 34.7583 36 33.9487V16.359C35.9819 16.1838 35.9044 16.0195 35.78 15.8923ZM29.7667 11.7641L33.58 15.8205H30.39C30.1333 15.8205 29.7667 15.5333 29.7667 15.3179V11.7641ZM32.8467 35.5641H17.1533C16.7151 35.5554 16.2967 35.3834 15.9833 35.0833C15.67 34.7832 15.4852 34.3775 15.4667 33.9487V12.0513C15.4852 11.6225 15.67 11.2168 15.9833 10.9167C16.2967 10.6166 16.7151 10.4446 17.1533 10.4359H28.3V15.3179C28.3 16.3231 29.3267 17.2564 30.39 17.2564H34.5333V33.9487C34.5148 34.3775 34.33 34.7832 34.0167 35.0833C33.7033 35.3834 33.2849 35.5554 32.8467 35.5641Z"
          fill="#022AF0" stroke="#022AF0" stroke-width="0.4"/>
    <path d="M29.0341 30.9635C28.8831 30.9774 28.7314 30.9444 28.6006 30.8692L25.3736 29.2188L22.1466 30.8692C21.9901 30.954 21.8127 30.9945 21.634 30.9862C21.4554 30.9779 21.2826 30.921 21.1351 30.822C20.9937 30.7104 20.884 30.565 20.8165 30.3998C20.749 30.2347 20.7261 30.0553 20.7498 29.8789L21.3759 26.3424L18.7751 23.9375C18.637 23.8159 18.5401 23.656 18.4971 23.4791C18.454 23.3023 18.467 23.1168 18.5342 22.9473C18.5808 22.7746 18.6791 22.6194 18.8164 22.5018C18.9537 22.3842 19.1238 22.3094 19.3049 22.2871L22.9172 21.7684L24.5066 18.6091C24.5679 18.4316 24.6845 18.2773 24.8401 18.168C24.9956 18.0588 25.1822 18 25.3736 18C25.565 18 25.7516 18.0588 25.9072 18.168C26.0627 18.2773 26.1793 18.4316 26.2406 18.6091L27.83 21.7684L31.4423 22.2871C31.6234 22.3094 31.7935 22.3842 31.9308 22.5018C32.0681 22.6194 32.1664 22.7746 32.213 22.9473C32.2802 23.1168 32.2932 23.3023 32.2502 23.4791C32.2072 23.656 32.1102 23.8159 31.9722 23.9375L29.3713 26.3424L29.9974 29.8789C30.0212 30.0553 29.9982 30.2347 29.9307 30.3998C29.8632 30.565 29.7535 30.7104 29.6121 30.822L29.0341 30.9635ZM25.3736 27.1912C25.5294 27.1943 25.6805 27.2436 25.8071 27.3326L27.7337 28.3229L27.3484 26.1538C27.3327 26.0075 27.3505 25.8597 27.4005 25.721C27.4505 25.5824 27.5314 25.4564 27.6373 25.3521L29.2268 23.8904L27.0594 23.5603C26.9063 23.534 26.7616 23.4735 26.6363 23.3835C26.511 23.2936 26.4085 23.1766 26.3369 23.0416L25.3736 21.1554L24.4103 23.0416C24.3387 23.1766 24.2362 23.2936 24.1109 23.3835C23.9857 23.4735 23.8409 23.534 23.6878 23.5603L21.5204 23.8904L23.1099 25.3521C23.2158 25.4564 23.2967 25.5824 23.3467 25.721C23.3967 25.8597 23.4145 26.0075 23.3989 26.1538L23.0135 28.3229L24.9401 27.3326C25.0667 27.2436 25.2178 27.1943 25.3736 27.1912Z"
          fill="white"/>
    <defs>
        <linearGradient id="paint0_linear" x1="1.23357e-07" y1="-7.56962" x2="43.9368" y2="40.067"
                        gradientUnits="userSpaceOnUse">
            <stop stop-color="#5DD4E8"/>
            <stop offset="1" stop-color="#76F3B5"/>
        </linearGradient>
    </defs>
</svg>

<svg width="49" height="46" fill="none" xmlns="http://www.w3.org/2000/svg"><rect width="49" height="46" rx="10" fill="url(#a)"/><rect x=".5" y=".5" width="48" height="45" rx="9.5" stroke="#FAFAFA" stroke-opacity=".1"/><path d="m35.78 15.892-6.123-6.605a.692.692 0 0 0-.55-.287H17.153a3.225 3.225 0 0 0-2.206.902 3.092 3.092 0 0 0-.947 2.15v21.897c.019.81.358 1.58.947 2.15.588.569 1.38.892 2.206.901h15.694a3.225 3.225 0 0 0 2.206-.902c.589-.569.928-1.34.947-2.15V16.36a.783.783 0 0 0-.22-.467Zm-6.013-4.128 3.813 4.056h-3.19c-.257 0-.623-.287-.623-.502v-3.554Zm3.08 23.8H17.153a1.742 1.742 0 0 1-1.17-.48 1.671 1.671 0 0 1-.516-1.135V12.05c.018-.428.203-.834.516-1.134.314-.3.732-.472 1.17-.481H28.3v4.882c0 1.005 1.027 1.938 2.09 1.938h4.143V33.95a1.671 1.671 0 0 1-.516 1.134c-.314.3-.732.472-1.17.481Z" fill="#022AF0" stroke="#022AF0" stroke-width=".4"/><path d="M29.034 30.963a.735.735 0 0 1-.433-.094l-3.227-1.65-3.227 1.65a.98.98 0 0 1-1.012-.047 1.018 1.018 0 0 1-.385-.943l.626-3.537-2.6-2.404a.878.878 0 0 1-.24-.99.894.894 0 0 1 .28-.446.925.925 0 0 1 .489-.215l3.612-.519 1.59-3.159a.898.898 0 0 1 .333-.441.929.929 0 0 1 1.067 0c.156.11.272.264.334.441l1.589 3.16 3.612.518a.925.925 0 0 1 .489.215.894.894 0 0 1 .282.445.878.878 0 0 1-.24.99l-2.602 2.405.626 3.537c.024.176.001.356-.066.52-.068.166-.178.311-.319.423l-.578.142Zm-3.66-3.772a.781.781 0 0 1 .433.142l1.927.99-.386-2.17a.97.97 0 0 1 .29-.8l1.589-1.463-2.168-.33a1.022 1.022 0 0 1-.722-.518l-.963-1.887-.964 1.887a1.021 1.021 0 0 1-.723.519l-2.167.33 1.59 1.461a.99.99 0 0 1 .289.802l-.386 2.169 1.927-.99a.781.781 0 0 1 .434-.142Z" fill="#fff"/><defs><linearGradient id="a" x1="0" y1="-7.57" x2="43.937" y2="40.067" gradientUnits="userSpaceOnUse"><stop stop-color="#5DD4E8"/><stop offset="1" stop-color="#76F3B5"/></linearGradient></defs></svg>
